digitransit-component/packages/digitransit-component-icon/src/assets/bus-replacement.svg

<svg viewBox="0 0 24 24" fill="none">
  <g clip-path="url(#clip0_6004_5541)">
    <path
      d="M0.5 3C0.5 1.61929 1.61929 0.5 3 0.5H21C22.3807 0.5 23.5 1.61929 23.5 3V21C23.5 22.3807 22.3807 23.5 21 23.5H3C1.61929 23.5 0.5 22.3807 0.5 21V3Z"
      fill="white"
      stroke="#DC0451"
    />
    <path
      d="M19.0201 3.02996C16.6201 2.72996 14.4301 2.57996 12.0301 2.57996C9.54012 2.57996 7.38012 2.69996 5.01012 3.02996C4.29012 3.11996 3.87012 3.53996 3.87012 4.16996V18.21C3.87012 18.66 4.20012 18.96 4.50012 19.05L5.40012 19.2V21.09C5.40012 21.3 5.58012 21.45 5.82012 21.45H7.26012C7.44012 21.45 7.62012 21.3 7.62012 21.09V19.41C8.79012 19.56 10.3801 19.62 11.9701 19.62C13.5901 19.62 15.2401 19.56 16.3801 19.41V21.09C16.3801 21.3 16.5901 21.45 16.7701 21.45H18.2101C18.4501 21.45 18.6301 21.3 18.6301 21.09V19.2L19.5301 19.05C19.8601 18.96 20.1601 18.69 20.1601 18.21V4.16996C20.1601 3.53996 19.7401 3.11996 19.0201 3.02996ZM18.8701 13.89C18.8701 14.28 18.7201 14.49 18.2401 14.55C16.5301 14.85 14.2801 15.15 12.0901 15.15C9.78012 15.15 7.59012 14.88 5.85012 14.49C5.37012 14.4 5.19012 14.22 5.19012 13.83V5.06996C5.19012 4.67996 5.37012 4.40996 5.85012 4.40996L18.2401 4.46996C18.7201 4.46996 18.8701 4.73996 18.8701 5.12996V13.89ZM6.48012 17.76C6.03012 17.73 5.67012 17.37 5.67012 16.95C5.70012 16.56 6.06012 16.2 6.48012 16.2C6.90012 16.2 7.26012 16.56 7.26012 16.95C7.26012 17.4 6.90012 17.76 6.48012 17.76ZM17.4301 17.76C17.0101 17.73 16.6501 17.37 16.6501 16.95C16.6801 16.56 17.0401 16.2 17.4301 16.2C17.8501 16.2 18.2101 16.56 18.2101 16.95C18.2101 17.4 17.8501 17.76 17.4301 17.76Z"
      fill="#DC0451"
    />
  </g>
  <defs>
    <clipPath id="clip0_6004_5541">
      <rect width="24" height="24" fill="white" />
    </clipPath>
  </defs>
</svg>

<svg fill="none" viewBox="0 0 24 24">
 <g clip-path="url(#a)">
  <path fill="#fff" stroke="#dc0451" d="M.5 3A2.5 2.5 0 0 1 3 .5h18A2.5 2.5 0 0 1 23.5 3v18a2.5 2.5 0 0 1-2.5 2.5H3A2.5 2.5 0 0 1 .5 21z"/>
  <path fill="#dc0451" d="M19.02 3.03c-2.4-.3-4.59-.45-6.99-.45-2.49 0-4.65.12-7.02.45-.72.09-1.14.51-1.14 1.14v14.04c0 .45.33.75.63.84l.9.15v1.89c0 .21.18.36.42.36h1.44c.18 0 .36-.15.36-.36v-1.68c1.17.15 2.76.21 4.35.21 1.62 0 3.27-.06 4.41-.21v1.68c0 .21.21.36.39.36h1.44c.24 0 .42-.15.42-.36V19.2l.9-.15c.33-.09.63-.36.63-.84V4.17c0-.63-.42-1.05-1.14-1.14m-.15 10.86c0 .39-.15.6-.63.66-1.71.3-3.96.6-6.15.6-2.31 0-4.5-.27-6.24-.66-.48-.09-.66-.27-.66-.66V5.07c0-.39.18-.66.66-.66l12.39.06c.48 0 .63.27.63.66zM6.48 17.76c-.45-.03-.81-.39-.81-.81a.84.84 0 0 1 .81-.75c.42 0 .78.36.78.75 0 .45-.36.81-.78.81m10.95 0c-.42-.03-.78-.39-.78-.81.03-.39.39-.75.78-.75.42 0 .78.36.78.75 0 .45-.36.81-.78.81"/>
 </g>
 <defs>
  <clipPath id="a">
   <path fill="#fff" d="M0 0h24v24H0z"/>
  </clipPath>
 </defs>
</svg>
